src/svg/printer.svg

<svg version="1.2" baseProfile="tiny" xmlns="http://www.w3.org/2000/svg" width="24" height="24" viewBox="0 0 24 24"><g><path d="M17 5v-2c0-.552-.448-1-1-1h-9c-.552 0-1 .448-1 1v2c-1.654 0-3 1.346-3 3v10c0 1.654 1.346 3 3 3h11c1.654 0 3-1.346 3-3v-10c0-1.654-1.346-3-3-3zm-9-1h7v5h-7v-5zm-2 3v3c0 .552.448 1 1 1h9c.552 0 1-.448 1-1v-3c.551 0 1 .449 1 1v2.5c0 .827-.673 1.5-1.5 1.5h-10c-.827 0-1.5-.673-1.5-1.5v-2.5c0-.551.449-1 1-1zm11 12h-11c-.551 0-1-.449-1-1v-5.513c.419.318.935.513 1.5.513h10c.565 0 1.081-.195 1.5-.513v5.513c0 .551-.449 1-1 1zM13.5 7h-4c-.276 0-.5.224-.5.5s.224.5.5.5h4c.276 0 .5-.224.5-.5s-.224-.5-.5-.5zM15 16h-7c-.276 0-.5.224-.5.5s.224.5.5.5h7c.276 0 .5-.224.5-.5s-.224-.5-.5-.5zM13.5 5h-4c-.276 0-.5.224-.5.5s.224.5.5.5h4c.276 0 .5-.224.5-.5s-.224-.5-.5-.5z"/></g></svg>

<?xml version="1.0" encoding="iso-8859-1"?>
<!-- Generator: Adobe Illustrator 16.2.1, SVG Export Plug-In . SVG Version: 6.00 Build 0)  -->
<svg version="1.2" baseProfile="tiny" xmlns="http://www.w3.org/2000/svg" xmlns:xlink="http://www.w3.org/1999/xlink" x="0px"
	 y="0px" width="24px" height="24px" viewBox="0 0 24 24" xml:space="preserve">
<g id="Layer_1">
	<g>
		<path d="M17,5V3c0-0.552-0.448-1-1-1H7C6.448,2,6,2.448,6,3v2C4.346,5,3,6.346,3,8v10c0,1.654,1.346,3,3,3h11c1.654,0,3-1.346,3-3
			V8C20,6.346,18.654,5,17,5z M8,4h7v5H8V4z M6,7v3c0,0.552,0.448,1,1,1h9c0.552,0,1-0.448,1-1V7c0.551,0,1,0.449,1,1v2.5
			c0,0.827-0.673,1.5-1.5,1.5h-10C5.673,12,5,11.327,5,10.5V8C5,7.449,5.449,7,6,7z M17,19H6c-0.551,0-1-0.449-1-1v-5.513
			C5.419,12.805,5.935,13,6.5,13h10c0.565,0,1.081-0.195,1.5-0.513V18C18,18.551,17.551,19,17,19z"/>
		<path d="M13.5,7h-4C9.224,7,9,7.224,9,7.5S9.224,8,9.5,8h4C13.776,8,14,7.776,14,7.5S13.776,7,13.5,7z"/>
		<path d="M15,16H8c-0.276,0-0.5,0.224-0.5,0.5S7.724,17,8,17h7c0.276,0,0.5-0.224,0.5-0.5S15.276,16,15,16z"/>
		<path d="M13.5,5h-4C9.224,5,9,5.224,9,5.5S9.224,6,9.5,6h4C13.776,6,14,5.776,14,5.5S13.776,5,13.5,5z"/>
	</g>
</g>
<g id="nyt_x5F_exporter_x5F_info" display="none">
</g>
</svg>
